X:1
T:Loch Lomond
M:4/4
L:1/8
K:E
B,-C| E2 EF G2 FE| F2 FE C2 B,B,| E2 E2 E2 GB| c4 B2| B2| c2 cB G2 GB|\
 AG FE C2 B,C| EE GB c2 BG| F4 E2| B,2| E2 E3/2 F/2 G2 GF| E2 E3/2 C/2 B,2 B,B,|\
 E2 EE E2 GB| c4 B2| B2| c2 cB G2 GB| AG FE C2 B,C| EE GB c2 BG| F4 E2||\
